svgs/sharp-solid/worm.svg

<svg xmlns="http://www.w3.org/2000/svg" viewBox="0 0 512 512"><!--! Font Awesome Pro 6.6.0 by @fontawesome - https://fontawesome.com License - https://fontawesome.com/license (Commercial License) Copyright 2024 Fonticons, Inc. --><path d="M256 96c0-53 43-96 96-96L480 0l0 128 0 48 0 16 0 184c0 75.1-60.9 136-136 136s-136-60.9-136-136l0-80c0-22.1-17.9-40-40-40s-40 17.9-40 40l0 168 0 48-96 0 0-48 0-168c0-75.1 60.9-136 136-136s136 60.9 136 136l0 80c0 22.1 17.9 40 40 40s40-17.9 40-40l0-184-32 0c-53 0-96-43-96-96zm144-8a24 24 0 1 0 -48 0 24 24 0 1 0 48 0z"/></svg>

<svg xmlns="http://www.w3.org/2000/svg" viewBox="0 0 512 512"><!--! Font Awesome Pro 6.4.0 by @fontawesome - https://fontawesome.com License - https://fontawesome.com/license (Commercial License) Copyright 2023 Fonticons, Inc. --><path d="M256 96c0-53 43-96 96-96H480V128v48 16V376c0 75.1-60.9 136-136 136s-136-60.9-136-136V296c0-22.1-17.9-40-40-40s-40 17.9-40 40V464v48H32V464 296c0-75.1 60.9-136 136-136s136 60.9 136 136v80c0 22.1 17.9 40 40 40s40-17.9 40-40V192H352c-53 0-96-43-96-96zm144-8a24 24 0 1 0 -48 0 24 24 0 1 0 48 0z"/></svg>
